X:1
T:Title
%%score { ( 1 4 ) | ( 2 3 ) }
L:1/8
Q:1/4=100
M:4/4
K:D
V:1 treble nm="Grand Piano"
V:4 treble 
V:2 bass 
V:3 bass 
V:1
 F2 A2 A2 G2 | [EG]2 [CG]2 F4 | B2 A2 G2 F2 | [DF]2 [DE]2 [CE]4 | FG .[DFA]2 [CEA]2 [B,D^G]2 | %5
w: R.~Menthal * * *|||||
 [A,CA]8 | [A,DF]2 [A,EG]2 [A,FA]2 F2 | G2 A2 B4 | G2 A2 B2 G2 | [GB]2 [Gd]2 [Gc]4 | %10
w: |||||
 [Fd]2 cB z D A2 | z4 [B,B]4[K:bass] | [DA]2 [A,DF]2[K:bass] [F,D]2 [G,CE]2 |[M:8/4] [F,D]8 z8 | %14
w: ||||
[M:4/4][K:treble] [B,G]8 | [A,DF]8 |] %16
w: ||
V:2
 [D,A,D]2 [D,F,D]2 [D,B,D]2 [D,B,D]2 | [C,A,]2 [A,,A,]2 [D,A,D]4 | %2
 [G,D]2 [F,A,D]2 [E,A,C]2 [D,A,D]2 | [B,,A,]2 [B,,^G,]2 [A,,A,]4 | %4
 [D,A,D]2 z[K:treble] B[K:bass] E,2 E,2 | A,,8 | D,2 D,2 D,2 [D,=CD]2 | %7
 [E,B,D]2 [F,A,D]2[K:treble] [G,D]4 | [G,B,D]2 [A,=CG]2 [G,DG]2 [G,B,]2 | %9
 [E,B,]2 [E,G,]2 [A,,A,]4 | [D,A,]2 [D,G,]2 [G,E]F, [D,E,C]2 | [D,F,B,]2 [D,F,B,]2 G,2 z2 | %12
 [A,,F,]2 A,,2 A,,2 A,,2 |[M:8/4] D,8 z8 |[M:4/4] G,,8 | D,8 |] %16
V:3
 x8 | x8 | x8 | x8 | z2 D,2[K:treble][K:bass] z4 | x8 | x8 | x4[K:treble] x4 | x8 | x8 | %10
 z4 D,2 z2 | z4 G,,4 | x8 |[M:8/4] x16 |[M:4/4] x8 | x8 |] %16
V:4
 x8 | x8 | x8 | x8 | x8 | x8 | x8 | x8 | x8 | x8 | z2 =F2 B2 z2 | A2 D2 z2[K:bass] D,E, | %12
 x4[K:bass] x4 |[M:8/4] x16 |[M:4/4][K:treble] x8 | x8 |] %16

